assets/images/allImg_w.svg

<svg fill="none" height="25" viewBox="0 0 25 25" width="25" xmlns="http://www.w3.org/2000/svg" xmlns:xlink="http://www.w3.org/1999/xlink"><clipPath id="a"><path d="m.5.5h24v24h-24z"/></clipPath><g clip-path="url(#a)"><path clip-rule="evenodd" d="m.5 3.5c0-.59674.237053-1.16903.65901-1.59099.42196-.42196.99425-.65901 1.59099-.65901h16.5c.5967 0 1.169.23705 1.591.65901.4219.42196.659.99425.659 1.59099v18c0 .5967-.2371 1.169-.659 1.591-.422.4219-.9943.659-1.591.659h-16.5c-.59674 0-1.16903-.2371-1.59099-.659-.421957-.422-.65901-.9943-.65901-1.591zm2.25-.75c-.19891 0-.38968.07902-.53033.21967s-.21967.33142-.21967.53033v18c0 .1989.07902.3897.21967.5303.14065.1407.33142.2197.53033.2197h16.5c.1989 0 .3897-.079.5303-.2197.1407-.1406.2197-.3314.2197-.5303v-18c0-.19891-.079-.38968-.2197-.53033-.1406-.14065-.3314-.21967-.5303-.21967z" fill="#fff" fill-rule="evenodd"/><path clip-rule="evenodd" d="m23.75 5c.1989 0 .3897.07902.5303.21967.1407.14065.2197.33142.2197.53033v15.75c0 .5967-.2371 1.169-.659 1.591-.422.4219-.9943.659-1.591.659h-4.5v-1.5h4.5c.1989 0 .3897-.079.5303-.2197.1407-.1406.2197-.3314.2197-.5303v-15.75c0-.19891.079-.38968.2197-.53033.1406-.14065.3314-.21967.5303-.21967z" fill="#000" fill-rule="evenodd"/><path d="m3.5 5h15v3h-15zm0 4.5h6v4.5h-6zm0 6h6v1.5h-6zm0 3h6v1.5h-6zm7.5-9h3v1.5h-3zm4.5 0h3v1.5h-3zm-4.5 3h3v1.5h-3zm4.5 0h3v1.5h-3zm-4.5 3h3v1.5h-3zm4.5 0h3v1.5h-3zm-4.5 3h3v1.5h-3zm4.5 0h3v1.5h-3z" fill="#fff"/></g></svg>

<svg width="25" height="25" viewBox="0 0 25 25" fill="none" xmlns="http://www.w3.org/2000/svg"><g clip-path="url(#clip0)"><path fill-rule="evenodd" clip-rule="evenodd" d="M0.5 3.5C0.5 2.90326 0.737053 2.33097 1.15901 1.90901C1.58097 1.48705 2.15326 1.25 2.75 1.25H19.25C19.8467 1.25 20.419 1.48705 20.841 1.90901C21.2629 2.33097 21.5 2.90326 21.5 3.5V21.5C21.5 22.0967 21.2629 22.669 20.841 23.091C20.419 23.5129 19.8467 23.75 19.25 23.75H2.75C2.15326 23.75 1.58097 23.5129 1.15901 23.091C0.737053 22.669 0.5 22.0967 0.5 21.5L0.5 3.5ZM2.75 2.75C2.55109 2.75 2.36032 2.82902 2.21967 2.96967C2.07902 3.11032 2 3.30109 2 3.5V21.5C2 21.6989 2.07902 21.8897 2.21967 22.0303C2.36032 22.171 2.55109 22.25 2.75 22.25H19.25C19.4489 22.25 19.6397 22.171 19.7803 22.0303C19.921 21.8897 20 21.6989 20 21.5V3.5C20 3.30109 19.921 3.11032 19.7803 2.96967C19.6397 2.82902 19.4489 2.75 19.25 2.75H2.75Z" fill="#fff"/><path fill-rule="evenodd" clip-rule="evenodd" d="M23.75 5C23.9489 5 24.1397 5.07902 24.2803 5.21967C24.421 5.36032 24.5 5.55109 24.5 5.75V21.5C24.5 22.0967 24.2629 22.669 23.841 23.091C23.419 23.5129 22.8467 23.75 22.25 23.75H17.75V22.25H22.25C22.4489 22.25 22.6397 22.171 22.7803 22.0303C22.921 21.8897 23 21.6989 23 21.5V5.75C23 5.55109 23.079 5.36032 23.2197 5.21967C23.3603 5.07902 23.5511 5 23.75 5Z" fill="#000"/><path d="M3.5 5H18.5V8H3.5V5ZM3.5 9.5H9.5V14H3.5V9.5ZM3.5 15.5H9.5V17H3.5V15.5ZM3.5 18.5H9.5V20H3.5V18.5ZM11 9.5H14V11H11V9.5ZM15.5 9.5H18.5V11H15.5V9.5ZM11 12.5H14V14H11V12.5ZM15.5 12.5H18.5V14H15.5V12.5ZM11 15.5H14V17H11V15.5ZM15.5 15.5H18.5V17H15.5V15.5ZM11 18.5H14V20H11V18.5ZM15.5 18.5H18.5V20H15.5V18.5Z" fill="#fff"/></g><defs><clipPath id="clip0"><rect width="24" height="24" fill="#fff" transform="translate(0.5 0.5)"/></clipPath></defs></svg>
